Numix-Circle/48x48/apps/chromium.svg

<?xml version="1.0" encoding="UTF-8" standalone="no"?>
<svg
   xmlns:dc="http://purl.org/dc/elements/1.1/"
   xmlns:cc="http://creativecommons.org/ns#"
   xmlns:rdf="http://www.w3.org/1999/02/22-rdf-syntax-ns#"
   xmlns:svg="http://www.w3.org/2000/svg"
   xmlns="http://www.w3.org/2000/svg"
   xmlns:xlink="http://www.w3.org/1999/xlink"
   xmlns:sodipodi="http://sodipodi.sourceforge.net/DTD/sodipodi-0.dtd"
   xmlns:inkscape="http://www.inkscape.org/namespaces/inkscape"
   viewBox="0 0 48 48"
   id="svg2"
   version="1.1"
   inkscape:version="0.48.4 r9939"
   width="100%"
   height="100%"
   sodipodi:docname="google-chromium.svg">
  <metadata
     id="metadata91">
    <rdf:RDF>
      <cc:Work
         rdf:about="">
        <dc:format>image/svg+xml</dc:format>
        <dc:type
           rdf:resource="http://purl.org/dc/dcmitype/StillImage" />
      </cc:Work>
    </rdf:RDF>
  </metadata>
  <sodipodi:namedview
     pagecolor="#ffffff"
     bordercolor="#666666"
     borderopacity="1"
     objecttolerance="10"
     gridtolerance="10"
     guidetolerance="10"
     inkscape:pageopacity="0"
     inkscape:pageshadow="2"
     inkscape:window-width="1280"
     inkscape:window-height="960"
     id="namedview89"
     showgrid="false"
     inkscape:zoom="9.8333333"
     inkscape:cx="26.012642"
     inkscape:cy="27.110331"
     inkscape:window-x="0"
     inkscape:window-y="0"
     inkscape:window-maximized="1"
     inkscape:current-layer="svg2" />
  <defs
     id="defs4">
    <linearGradient
       id="linearGradient3764"
       x1="1"
       x2="47"
       gradientUnits="userSpaceOnUse"
       gradientTransform="matrix(0,-1,1,0,-1.5e-6,47.999998)">
      <stop
         stop-color="#e4e4e4"
         stop-opacity="1"
         id="stop7" />
      <stop
         offset="1"
         stop-color="#eee"
         stop-opacity="1"
         id="stop9" />
    </linearGradient>
    <clipPath
       id="clipPath-025284691">
      <g
         transform="translate(0,-1004.3622)"
         id="g12">
        <path
           d="m -24 13 c 0 1.105 -0.672 2 -1.5 2 -0.828 0 -1.5 -0.895 -1.5 -2 0 -1.105 0.672 -2 1.5 -2 0.828 0 1.5 0.895 1.5 2 z"
           transform="matrix(15.333333,0,0,11.5,414.99999,878.8622)"
           fill="#1890d0"
           id="path14" />
      </g>
    </clipPath>
    <clipPath
       id="clipPath-032560689">
      <g
         transform="translate(0,-1004.3622)"
         id="g17">
        <path
           d="m -24 13 c 0 1.105 -0.672 2 -1.5 2 -0.828 0 -1.5 -0.895 -1.5 -2 0 -1.105 0.672 -2 1.5 -2 0.828 0 1.5 0.895 1.5 2 z"
           transform="matrix(15.333333,0,0,11.5,414.99999,878.8622)"
           fill="#1890d0"
           id="path19" />
      </g>
    </clipPath>
    <linearGradient
       inkscape:collect="always"
       xlink:href="#linearGradient3764"
       id="linearGradient3113"
       gradientUnits="userSpaceOnUse"
       gradientTransform="matrix(0,-1,1,0,-1.5e-6,47.999998)"
       x1="1"
       x2="47" />
    <linearGradient
       inkscape:collect="always"
       xlink:href="#linearGradient3764"
       id="linearGradient3040"
       gradientUnits="userSpaceOnUse"
       gradientTransform="matrix(0,-1,1,0,-1.5e-6,47.999998)"
       x1="1"
       x2="47" />
  </defs>
  <g
     id="g23"
     transform="translate(0,-1004.3622)">
    <path
       style="opacity:0.05"
       inkscape:connector-curvature="0"
       id="path25"
       d="m 25,1006.36 c -12.703,0 -23,10.298 -23,23 0,6.367 2.601,12.12 6.781,16.281 4.085,3.712 9.514,5.969 15.469,5.969 12.703,0 23,-10.297 23,-23 0,-5.954 -2.256,-11.384 -5.969,-15.469 -4.165,-4.181 -9.914,-6.781 -16.281,-6.781 z m 16.281,6.781 c 3.854,4.113 6.219,9.637 6.219,15.719 0,12.703 -10.297,23 -23,23 -6.081,0 -11.606,-2.364 -15.719,-6.219 4.16,4.144 9.883,6.719 16.219,6.719 12.703,0 23,-10.297 23,-23 0,-6.335 -2.575,-12.06 -6.719,-16.219 z" />
    <path
       style="opacity:0.1"
       inkscape:connector-curvature="0"
       id="path27"
       d="m 41.28,1013.14 c 3.712,4.085 5.969,9.514 5.969,15.469 0,12.703 -10.297,23 -23,23 -5.954,0 -11.384,-2.256 -15.469,-5.969 4.113,3.854 9.637,6.219 15.719,6.219 12.703,0 23,-10.297 23,-23 0,-6.081 -2.364,-11.606 -6.219,-15.719 z" />
    <path
       style="opacity:0.2"
       inkscape:connector-curvature="0"
       id="path29"
       d="m -24,13 a 1.5,2 0 1 1 -3,0 1.5,2 0 1 1 3,0 z"
       transform="matrix(15.333333,0,0,11.5,415.24999,879.11222)" />
  </g>
  <path
     style="fill:#209cc8;fill-opacity:1;fill-rule:nonzero;stroke:none"
     inkscape:connector-curvature="0"
     id="path69"
     d="m 31.996,24 c 0,4.418 -3.578,8 -8,8 -4.418,0 -8,-3.578 -8,-8 0,-4.418 3.578,-8 8,-8 4.418,0 8,3.582 8,8 m 0,0" />
  <path
     style="fill:#f9f9f9;fill-opacity:1;fill-rule:nonzero;stroke:none"
     inkscape:connector-curvature="0"
     id="path71"
     d="m 33.965,24 c 0,5.504 -4.461,9.965 -9.965,9.965 -5.508,0 -9.969,-4.461 -9.969,-9.965 0,-5.508 4.461,-9.969 9.969,-9.969 5.504,0 9.965,4.461 9.965,9.969 m 0,0" />
  <path
     style="fill:#209dc8;fill-opacity:1;fill-rule:nonzero;stroke:none"
     inkscape:connector-curvature="0"
     id="path73"
     d="m 31.961,24 c -0.09,4.336 -3.637,7.809 -7.973,7.809 -4.34,0 -7.883,-3.473 -7.977,-7.809 -0.059,-2.891 1.445,-5.586 3.938,-7.05 2.492,-1.465 5.582,-1.465 8.07,0 2.492,1.461 4,4.156 3.938,7.05 m 0,0" />
  <path
     inkscape:connector-curvature="0"
     style="fill:#95b9dd;fill-opacity:1;fill-rule:nonzero;stroke:none"
     d="m 29.5625,17 c 1.023,0.828 1.94525,1.90575 2.53125,3.09375 0.59,1.191 0.90625,2.5155 0.90625,3.9375 0,1.242 -0.2295,2.422 -0.6875,3.5 -0.457,1.078 -1.1255,2.058 -1.9375,2.875 -0.816,0.813 -1.797,1.4845 -2.875,1.9375 -0.865841,0.367116 -1.830174,0.487556 -2.8125,0.5625 l -7.53125,13.0625 C 19.316845,46.640765 21.618272,47 24,47 36.702549,47 47,36.702549 47,24 47,21.559034 46.61075,19.207337 45.90625,17 L 29.5625,17 z"
     id="path77" />
  <path
     inkscape:connector-curvature="0"
     style="fill:#678eb8;fill-opacity:1;fill-rule:nonzero;stroke:none"
     d="M 24,1 C 17.251771,1 11.176091,3.9021448 6.96875,8.53125 l 8.1875,14.125 C 15.35925,21.35525 15.8245,20.105 16.5625,19 c 0.738,-1.102 1.73775,-2.043 2.96875,-2.75 1.078,-0.621 2.215,-1.01625 3.375,-1.15625 1.156,-0.145 2.35475,-0.051 3.46875,0.25 1.113,0.301 2.15975,0.797 3.09375,1.5 0.758,0.574 1.34425,1.3665 1.90625,2.1875 L 46.4375,19 C 44.150583,8.7069873 34.981634,1 24,1 z"
     id="path75" />
  <path
     inkscape:connector-curvature="0"
     style="fill:#6193c5;fill-opacity:1;fill-rule:nonzero;stroke:none"
     d="M 8.3125,7.1875 C 3.8157739,11.385557 1,17.362918 1,24 1,34.960619 8.6741229,44.128631 18.9375,46.4375 L 27.25,32.40625 c -1.227,0.477 -2.51975,0.711 -3.84375,0.625 -1.328,-0.086 -2.645,-0.50775 -3.875,-1.21875 -1.078,-0.621 -1.9805,-1.40575 -2.6875,-2.34375 -0.703,-0.934 -1.23425,-2.016 -1.53125,-3.125 -0.297,-1.113 -0.395,-2.2735 -0.25,-3.4375 0.115879,-0.931987 0.540715,-1.829178 0.96875,-2.71875 l -7.71875,-13 z"
     id="path79" />
  <path
     style="fill:#f9f9f9;fill-opacity:1;fill-rule:nonzero;stroke:none"
     inkscape:connector-curvature="0"
     id="path81"
     d="m 33,24 c 0,4.969 -4.03,9 -9,9 -4.973,0 -9,-4.03 -9,-9 0,-4.973 4.03,-9 9,-9 4.969,0 9,4.03 9,9 m 0,0" />
  <path
     style="fill:#3d7fe6;fill-opacity:1;fill-rule:nonzero;stroke:none"
     inkscape:connector-curvature="0"
     id="path83"
     d="m 31,24 c -0.086,3.805 -3.195,6.844 -7,6.844 -3.805,0 -6.914,-3.039 -7,-6.844 -0.055,-2.539 1.266,-4.91 3.453,-6.195 2.191,-1.285 4.906,-1.285 7.094,0 C 29.735,19.09 31.059,21.461 31,24 m 0,0" />
  <path
     style="opacity:0.1"
     inkscape:connector-curvature="0"
     id="path87"
     d="m 40.03,7.531 c 3.712,4.084 5.969,9.514 5.969,15.469 0,12.703 -10.297,23 -23,23 C 17.045,46 11.615,43.744 7.53,40.031 11.708,44.322 17.54,47 23.999,47 c 12.703,0 23,-10.298 23,-23 0,-6.462 -2.677,-12.291 -6.969,-16.469 z" />
</svg>

<?xml version="1.0" encoding="UTF-8" standalone="no"?>
<svg
   xmlns:dc="http://purl.org/dc/elements/1.1/"
   xmlns:cc="http://creativecommons.org/ns#"
   xmlns:rdf="http://www.w3.org/1999/02/22-rdf-syntax-ns#"
   xmlns:svg="http://www.w3.org/2000/svg"
   xmlns="http://www.w3.org/2000/svg"
   xmlns:xlink="http://www.w3.org/1999/xlink"
   xmlns:sodipodi="http://sodipodi.sourceforge.net/DTD/sodipodi-0.dtd"
   xmlns:inkscape="http://www.inkscape.org/namespaces/inkscape"
   viewBox="0 0 48 48"
   id="svg2"
   version="1.1"
   inkscape:version="0.48.4 r9939"
   width="100%"
   height="100%"
   sodipodi:docname="chromium.svg">
  <metadata
     id="metadata91">
    <rdf:RDF>
      <cc:Work
         rdf:about="">
        <dc:format>image/svg+xml</dc:format>
        <dc:type
           rdf:resource="http://purl.org/dc/dcmitype/StillImage" />
      </cc:Work>
    </rdf:RDF>
  </metadata>
  <sodipodi:namedview
     pagecolor="#ffffff"
     bordercolor="#666666"
     borderopacity="1"
     objecttolerance="10"
     gridtolerance="10"
     guidetolerance="10"
     inkscape:pageopacity="0"
     inkscape:pageshadow="2"
     inkscape:window-width="1280"
     inkscape:window-height="960"
     id="namedview89"
     showgrid="false"
     inkscape:zoom="4.9166667"
     inkscape:cx="24.40678"
     inkscape:cy="21.966102"
     inkscape:window-x="0"
     inkscape:window-y="0"
     inkscape:window-maximized="1"
     inkscape:current-layer="svg2" />
  <defs
     id="defs4">
    <linearGradient
       id="linearGradient3764"
       x1="1"
       x2="47"
       gradientUnits="userSpaceOnUse"
       gradientTransform="matrix(0,-1,1,0,-1.5e-6,47.999998)">
      <stop
         stop-color="#e4e4e4"
         stop-opacity="1"
         id="stop7" />
      <stop
         offset="1"
         stop-color="#eee"
         stop-opacity="1"
         id="stop9" />
    </linearGradient>
    <clipPath
       id="clipPath-025284691">
      <g
         transform="translate(0,-1004.3622)"
         id="g12">
        <path
           d="m -24 13 c 0 1.105 -0.672 2 -1.5 2 -0.828 0 -1.5 -0.895 -1.5 -2 0 -1.105 0.672 -2 1.5 -2 0.828 0 1.5 0.895 1.5 2 z"
           transform="matrix(15.333333,0,0,11.5,414.99999,878.8622)"
           fill="#1890d0"
           id="path14" />
      </g>
    </clipPath>
    <clipPath
       id="clipPath-032560689">
      <g
         transform="translate(0,-1004.3622)"
         id="g17">
        <path
           d="m -24 13 c 0 1.105 -0.672 2 -1.5 2 -0.828 0 -1.5 -0.895 -1.5 -2 0 -1.105 0.672 -2 1.5 -2 0.828 0 1.5 0.895 1.5 2 z"
           transform="matrix(15.333333,0,0,11.5,414.99999,878.8622)"
           fill="#1890d0"
           id="path19" />
      </g>
    </clipPath>
    <linearGradient
       inkscape:collect="always"
       xlink:href="#linearGradient3764"
       id="linearGradient3113"
       gradientUnits="userSpaceOnUse"
       gradientTransform="matrix(0,-1,1,0,-1.5e-6,47.999998)"
       x1="1"
       x2="47" />
  </defs>
  <g
     id="g3128">
    <g
       transform="translate(0,-1004.3622)"
       id="g23">
      <path
         d="m 25,1006.36 c -12.703,0 -23,10.298 -23,23 0,6.367 2.601,12.12 6.781,16.281 4.085,3.712 9.514,5.969 15.469,5.969 12.703,0 23,-10.297 23,-23 0,-5.954 -2.256,-11.384 -5.969,-15.469 -4.165,-4.181 -9.914,-6.781 -16.281,-6.781 z m 16.281,6.781 c 3.854,4.113 6.219,9.637 6.219,15.719 0,12.703 -10.297,23 -23,23 -6.081,0 -11.606,-2.364 -15.719,-6.219 4.16,4.144 9.883,6.719 16.219,6.719 12.703,0 23,-10.297 23,-23 0,-6.335 -2.575,-12.06 -6.719,-16.219 z"
         id="path25"
         inkscape:connector-curvature="0"
         style="opacity:0.05" />
      <path
         d="m 41.28,1013.14 c 3.712,4.085 5.969,9.514 5.969,15.469 0,12.703 -10.297,23 -23,23 -5.954,0 -11.384,-2.256 -15.469,-5.969 4.113,3.854 9.637,6.219 15.719,6.219 12.703,0 23,-10.297 23,-23 0,-6.081 -2.364,-11.606 -6.219,-15.719 z"
         id="path27"
         inkscape:connector-curvature="0"
         style="opacity:0.1" />
      <path
         transform="matrix(15.333333,0,0,11.5,415.24999,879.11222)"
         d="m -24,13 a 1.5,2 0 1 1 -3,0 1.5,2 0 1 1 3,0 z"
         id="path29"
         inkscape:connector-curvature="0"
         style="opacity:0.2" />
    </g>
    <path
       d="M 24,1 C 36.703,1 47,11.297 47,24 47,36.703 36.703,47 24,47 11.297,47 1,36.703 1,24 1,11.297 11.297,1 24,1 z"
       id="path33"
       style="fill:url(#linearGradient3113);fill-opacity:1"
       inkscape:connector-curvature="0" />
    <g
       clip-path="url(#clipPath-025284691)"
       id="g39">
      <g
         transform="translate(0,1)"
         id="g41">
        <g
           id="g43"
           style="opacity:0.1">
          <!-- color: #eeeeee -->
          <g
             id="g45">
            <path
               d="m 31.996,24 c 0,4.418 -3.578,8 -8,8 -4.418,0 -8,-3.578 -8,-8 0,-4.418 3.578,-8 8,-8 4.418,0 8,3.582 8,8 m 0,0"
               id="path47"
               inkscape:connector-curvature="0"
               style="fill:#000000;fill-opacity:1;fill-rule:nonzero;stroke:none" />
            <path
               d="m 33.965,24 c 0,5.504 -4.461,9.965 -9.965,9.965 -5.508,0 -9.969,-4.461 -9.969,-9.965 0,-5.508 4.461,-9.969 9.969,-9.969 5.504,0 9.965,4.461 9.965,9.969 m 0,0"
               id="path49"
               inkscape:connector-curvature="0"
               style="fill:#000000;fill-opacity:1;fill-rule:nonzero;stroke:none" />
            <path
               d="m 31.961,24 c -0.09,4.336 -3.637,7.809 -7.973,7.809 -4.34,0 -7.883,-3.473 -7.977,-7.809 -0.059,-2.891 1.445,-5.586 3.938,-7.05 2.492,-1.465 5.582,-1.465 8.07,0 2.492,1.461 4,4.156 3.938,7.05 m 0,0"
               id="path51"
               inkscape:connector-curvature="0"
               style="fill:#000000;fill-opacity:1;fill-rule:nonzero;stroke:none" />
            <path
               d="M 31.363,19.04 48,19.001 c 0,-6 0,-13 0,-19 -15.332,0 -30.668,0 -45.996,0 l 13.14,22.664 c 0.203,-1.301 0.668,-2.551 1.406,-3.656 0.738,-1.102 1.738,-2.043 2.969,-2.75 1.078,-0.621 2.215,-1.016 3.375,-1.156 1.156,-0.145 2.355,-0.051 3.469,0.25 1.113,0.301 2.16,0.797 3.094,1.5 0.758,0.574 1.344,1.367 1.906,2.188 m 0,0"
               id="path53"
               inkscape:connector-curvature="0"
               style="fill:#000000;fill-opacity:1;fill-rule:nonzero;stroke:none" />
            <path
               d="M 24.676,32.895 16,47.995 c 9,0 29,0 31.996,0 0,-4 0,-25.02 0,-31 l -18.441,0 c 1.023,0.828 1.965,1.898 2.551,3.086 0.59,1.191 0.898,2.527 0.898,3.949 0,1.242 -0.23,2.422 -0.688,3.5 -0.457,1.078 -1.141,2.066 -1.953,2.883 -0.816,0.813 -1.77,1.473 -2.848,1.926 -0.875,0.371 -1.855,0.48 -2.848,0.555 m 0.008,0"
               id="path55"
               inkscape:connector-curvature="0"
               style="fill:#000000;fill-opacity:1;fill-rule:nonzero;stroke:none" />
            <path
               d="M 16.02,20.18 4,0 C 2.004,0 1,0 0,0 c 0,8 0,41 0,48 7,0 12,0 18,0 l 9.262,-15.59 c -1.227,0.477 -2.543,0.695 -3.867,0.609 -1.328,-0.086 -2.637,-0.484 -3.867,-1.195 -1.078,-0.621 -1.984,-1.41 -2.691,-2.348 -0.703,-0.934 -1.219,-2.02 -1.516,-3.129 -0.297,-1.113 -0.391,-2.266 -0.246,-3.43 0.117,-0.941 0.508,-1.848 0.941,-2.746 m 0,0.004"
               id="path57"
               inkscape:connector-curvature="0"
               style="fill:#000000;fill-opacity:1;fill-rule:nonzero;stroke:none" />
            <path
               d="m 33,24 c 0,4.969 -4.03,9 -9,9 -4.973,0 -9,-4.03 -9,-9 0,-4.973 4.03,-9 9,-9 4.969,0 9,4.03 9,9 m 0,0"
               id="path59"
               inkscape:connector-curvature="0"
               style="fill:#000000;fill-opacity:1;fill-rule:nonzero;stroke:none" />
            <path
               d="m 31,24 c -0.086,3.805 -3.195,6.844 -7,6.844 -3.805,0 -6.914,-3.039 -7,-6.844 -0.055,-2.539 1.266,-4.91 3.453,-6.195 2.191,-1.285 4.906,-1.285 7.094,0 C 29.735,19.09 31.059,21.461 31,24 m 0,0"
               id="path61"
               inkscape:connector-curvature="0"
               style="fill:#000000;fill-opacity:1;fill-rule:nonzero;stroke:none" />
          </g>
        </g>
      </g>
    </g>
    <path
       d="m 31.996,24 c 0,4.418 -3.578,8 -8,8 -4.418,0 -8,-3.578 -8,-8 0,-4.418 3.578,-8 8,-8 4.418,0 8,3.582 8,8 m 0,0"
       id="path69"
       inkscape:connector-curvature="0"
       style="fill:#209cc8;fill-opacity:1;fill-rule:nonzero;stroke:none" />
    <path
       d="m 33.965,24 c 0,5.504 -4.461,9.965 -9.965,9.965 -5.508,0 -9.969,-4.461 -9.969,-9.965 0,-5.508 4.461,-9.969 9.969,-9.969 5.504,0 9.965,4.461 9.965,9.969 m 0,0"
       id="path71"
       inkscape:connector-curvature="0"
       style="fill:#f9f9f9;fill-opacity:1;fill-rule:nonzero;stroke:none" />
    <path
       d="m 31.961,24 c -0.09,4.336 -3.637,7.809 -7.973,7.809 -4.34,0 -7.883,-3.473 -7.977,-7.809 -0.059,-2.891 1.445,-5.586 3.938,-7.05 2.492,-1.465 5.582,-1.465 8.07,0 2.492,1.461 4,4.156 3.938,7.05 m 0,0"
       id="path73"
       inkscape:connector-curvature="0"
       style="fill:#209dc8;fill-opacity:1;fill-rule:nonzero;stroke:none" />
    <path
       id="path75"
       d="M 24 1 C 17.251771 1 11.176091 3.9021448 6.96875 8.53125 L 15.15625 22.65625 C 15.35925 21.35525 15.8245 20.105 16.5625 19 C 17.3005 17.898 18.30025 16.957 19.53125 16.25 C 20.60925 15.629 21.74625 15.23375 22.90625 15.09375 C 24.06225 14.94875 25.261 15.04275 26.375 15.34375 C 27.488 15.64475 28.53475 16.14075 29.46875 16.84375 C 30.22675 17.41775 30.813 18.21025 31.375 19.03125 L 46.4375 19 C 44.150583 8.7069873 34.981634 1 24 1 z "
       style="fill:#678eb8;fill-opacity:1;fill-rule:nonzero;stroke:none" />
    <path
       id="path77"
       d="M 29.5625 17 C 30.5855 17.828 31.50775 18.90575 32.09375 20.09375 C 32.68375 21.28475 33 22.60925 33 24.03125 C 33 25.27325 32.7705 26.45325 32.3125 27.53125 C 31.8555 28.60925 31.187 29.58925 30.375 30.40625 C 29.559 31.21925 28.578 31.89075 27.5 32.34375 C 26.634159 32.710866 25.669826 32.831306 24.6875 32.90625 L 17.15625 45.96875 C 19.316845 46.640765 21.618272 47 24 47 C 36.702549 47 47 36.702549 47 24 C 47 21.559034 46.61075 19.207337 45.90625 17 L 29.5625 17 z "
       style="fill:#95b9dd;fill-opacity:1;fill-rule:nonzero;stroke:none" />
    <path
       id="path79"
       d="M 8.3125 7.1875 C 3.8157739 11.385557 1 17.362918 1 24 C 1 34.960619 8.6741229 44.128631 18.9375 46.4375 L 27.25 32.40625 C 26.023 32.88325 24.73025 33.11725 23.40625 33.03125 C 22.07825 32.94525 20.76125 32.5235 19.53125 31.8125 C 18.45325 31.1915 17.55075 30.40675 16.84375 29.46875 C 16.14075 28.53475 15.6095 27.45275 15.3125 26.34375 C 15.0155 25.23075 14.9175 24.07025 15.0625 22.90625 C 15.178379 21.974263 15.603215 21.077072 16.03125 20.1875 L 8.3125 7.1875 z "
       style="fill:#6193c5;fill-opacity:1;fill-rule:nonzero;stroke:none" />
    <path
       d="m 33,24 c 0,4.969 -4.03,9 -9,9 -4.973,0 -9,-4.03 -9,-9 0,-4.973 4.03,-9 9,-9 4.969,0 9,4.03 9,9 m 0,0"
       id="path81"
       inkscape:connector-curvature="0"
       style="fill:#f9f9f9;fill-opacity:1;fill-rule:nonzero;stroke:none" />
    <path
       d="m 31,24 c -0.086,3.805 -3.195,6.844 -7,6.844 -3.805,0 -6.914,-3.039 -7,-6.844 -0.055,-2.539 1.266,-4.91 3.453,-6.195 2.191,-1.285 4.906,-1.285 7.094,0 C 29.735,19.09 31.059,21.461 31,24 m 0,0"
       id="path83"
       inkscape:connector-curvature="0"
       style="fill:#3d7fe6;fill-opacity:1;fill-rule:nonzero;stroke:none" />
    <path
       d="m 40.03,7.531 c 3.712,4.084 5.969,9.514 5.969,15.469 0,12.703 -10.297,23 -23,23 C 17.045,46 11.615,43.744 7.53,40.031 11.708,44.322 17.54,47 23.999,47 c 12.703,0 23,-10.298 23,-23 0,-6.462 -2.677,-12.291 -6.969,-16.469 z"
       id="path87"
       inkscape:connector-curvature="0"
       style="opacity:0.1" />
  </g>
</svg>
